!!!COM:	Bach, Johann Sebastian
!!!OMV:	Oh God, how many heart pains
!!!OTL:	Oh God, how many heart pains
**kern	**fb	**kern	**kern	**kern	**kern	**kern	**kern	**kern	**kern	**kern	**kern	**kern	**kern	**kern	**kern
*part15	*part15	*part14	*part13	*part12	*part11	*part10	*part9	*part8	*part7	*part6	*part5	*part4	*part3	*part2	*part1
*staff15	*	*staff14	*staff13	*staff12	*staff11	*staff10	*staff9	*staff8	*staff7	*staff6	*staff5	*staff4	*staff3	*staff2	*staff1
*I"Continuo	*	*I"Voice	*I"Voice	*I"Voice	*I"Voice	*I"Viola	*I"Violin	*I"Violin	*I"Oboe	*I"Oboe	*I"Flute	*I"Timpani	*I"B♭ Trumpet	*I"B♭ Trumpet	*I"B♭ Trumpet
*I'Cont.	*	*I'V	*I'V	*I'V	*I'V	*I'Vla.	*I'Vln.	*I'Vln.	*I'Ob.	*I'Ob.	*I'Fl.	*I'Timp.	*I'B♭ Tpt.	*I'B♭ Tpt.	*I'B♭ Tpt.
*clefF4	*	*clefF4	*clefGv2	*clefG2	*clefG2	*clefC3	*clefG2	*clefG2	*clefG2	*clefG2	*clefG2	*clefF4	*clefG2	*clefG2	*clefG2
*Trd0c0	*	*	*	*	*	*	*	*	*	*	*	*	*	*	*
*k[f#c#]	*	*k[f#c#]	*k[f#c#]	*k[f#c#]	*k[f#c#]	*k[f#c#]	*k[f#c#]	*k[f#c#]	*k[f#c#]	*k[f#c#]	*k[f#c#]	*k[f#c#]	*k[f#c#]	*k[f#c#]	*k[f#c#]
*M4/4	*	*M4/4	*M4/4	*M4/4	*M4/4	*M4/4	*M4/4	*M4/4	*M4/4	*M4/4	*M4/4	*M4/4	*M4/4	*M4/4	*M4/4
8d	.	8r	8r	8r	8r	8r	8r	8r	8r	8r	8r	8r	8r	8r	8a
=2	=2	=2	=2	=2	=2	=2	=2	=2	=2	=2	=2	=2	=2	=2	=2
4d	.	1r	1r	1r	1r	2r	2r	2r	2r	2r	1r	2r	2r	2r	16ddLL
.	.	.	.	.	.	.	.	.	.	.	.	.	.	.	16eeJ
.	.	.	.	.	.	.	.	.	.	.	.	.	.	.	8ff#J
4A	6 4	.	.	.	.	.	.	.	.	.	.	.	.	.	8ff#L
.	5 3	.	.	.	.	.	.	.	.	.	.	.	.	.	8eeJ
4D	.	.	.	.	.	16r	16r	16r	16r	16r	.	16r	16r	16r	8ddL
.	.	.	.	.	.	16f#LL	16aLL	16ddLL	16aLL	16ddLL	.	16DLL	16dLL	16f#LL	.
.	.	.	.	.	.	16a	16dd	16ff#	16dd	16ff#	.	16D	16d	16f#	8aJ
.	.	.	.	.	.	16ddJJ	16ff#JJ	16aaJJ	16ff#JJ	16aaJJ	.	16DJJ	16dJJ	16f#JJ	.
8r	.	.	.	.	.	8f#	8aa	8ddd	8aa	8ddd	.	8D	8d	8f#L	8aL
8D	.	.	.	.	.	8r	8r	8r	8r	8r	.	8r	8r	8aJ	16ddL
.	.	.	.	.	.	.	.	.	.	.	.	.	.	.	16eeJJ
=3	=3	=3	=3	=3	=3	=3	=3	=3	=3	=3	=3	=3	=3	=3	=3
4D	.	1r	1r	1r	1r	2r	2r	2r	2r	2r	1r	2r	2r	16ddLL	16ff#LL
.	.	.	.	.	.	.	.	.	.	.	.	.	.	16eeJ	16ggJ
.	.	.	.	.	.	.	.	.	.	.	.	.	.	8ff#J	8aaJ
4AA	6 4	.	.	.	.	.	.	.	.	.	.	.	.	8ff#L	8aaL
.	5 3	.	.	.	.	.	.	.	.	.	.	.	.	8eeJ	8ggJ
4DD	.	.	.	.	.	16r	16r	16r	16r	16r	.	16r	16r	8ddL	8ff#L
.	.	.	.	.	.	16f#LL	16aLL	16ddLL	16aLL	16ddLL	.	16DLL	16f#LL	.	.
.	.	.	.	.	.	16a	16dd	16ff#	16dd	16ff#	.	16D	16f#	8aJ	8ddJ
.	.	.	.	.	.	16ddJJ	16ff#JJ	16aaJJ	16ff#JJ	16aaJJ	.	16DJJ	16f#JJ	.	.
8r	.	.	.	.	.	8f#L	8aaL	8dddL	8aaL	8dddL	.	8DL	8f#L	8aL	16ddLL
.	.	.	.	.	.	.	.	.	.	.	.	.	.	.	16ee
8D	.	.	.	.	.	8f#J	8aJ	8ddJ	8ff#J	8aaJ	.	8DJ	8aJ	16ddL	16ff#
.	.	.	.	.	.	.	.	.	.	.	.	.	.	16eeJJ	16ggJJ
=4	=4	=4	=4	=4	=4	=4	=4	=4	=4	=4	=4	=4	=4	=4	=4
!!pagebreak:original
8DL	.	1r	1r	1r	1r	8f#L	8aL	8ddL	8ff#L	8aaL	1r	4D	4dd	8ff#L	8aaL
8D	6 4	.	.	.	.	8e	8g	8cc#	8ggJ	8bbJ	.	.	.	8ggJ	8bbJ
8D	.	.	.	.	.	8e	8g	8cc#	8ggL	8bbL	.	8r	8r	8ggL	8bbL
8DJ	5 3	.	.	.	.	8f#J	8aJ	8ddJ	16ff#L	16aaL	.	16DLL	16ddLL	16ff#L	16aaL
.	.	.	.	.	.	.	.	.	16eeJJ	16ggJJ	.	16DJJ	16ddJJ	16eeJJ	16ggJJ
8DL	5 3	.	.	.	.	8f#L	8aL	8ddL	8ff#L	8aaL	.	4D	4dd	8ff#L	8aaL
8D	7 4 2	.	.	.	.	8g	8cc#J	8eeJ	16eeL	16ggL	.	.	.	16eeL	16ggL
.	.	.	.	.	.	.	.	.	16ddJJ	16ff#JJ	.	.	.	16ddJJ	16ff#JJ
8D	.	.	.	.	.	8g	8cc#L	8eeL	8eeL	8ggL	.	8r	8r	8eeL	8ggL
8DJ	5 3	.	.	.	.	8aJ	16ddL	16ff#L	16ddL	16ff#L	.	16DLL	16aLL	16ddL	16ff#L
.	.	.	.	.	.	.	16eeJJ	16ggJJ	16cc#JJ	16eeJJ	.	16DJJ	16aJJ	16cc#JJ	16eeJJ
=5	=5	=5	=5	=5	=5	=5	=5	=5	=5	=5	=5	=5	=5	=5	=5
8DL	.	1r	1r	1r	1r	8aL	8ddL	8ff#L	16ddLL	16ff#LL	1r	4D	4a	16ddLL	16ff#LL
.	.	.	.	.	.	.	.	.	16eeJ	16ggJ	.	.	.	16eeJ	16ggJ
8D	.	.	.	.	.	8f#	8a	8dd	8ff#J	8aaJ	.	.	.	8ff#J	8aaJ
8D	.	.	.	.	.	8f#	8a	8dd	8ff#L	8aaL	.	8r	8r	8ff#L	8aaL
8DJ	.	.	.	.	.	8gJ	8cc#J	8eeJ	16eeL	16ggL	.	16DLL	16aLL	16eeL	16ggL
.	.	.	.	.	.	.	.	.	16ddJJ	16ff#JJ	.	16DJJ	16aJJ	16ddJJ	16ff#JJ
4D	7 4 2	.	.	.	.	8gL	8cc#L	8eeL	8eeL	8ggL	.	4D	4a	8eeL	8ggL
.	8 5 3	.	.	.	.	8a	8ddJ	8ff#J	16ddL	16ff#L	.	.	.	16ddL	16ff#L
.	.	.	.	.	.	.	.	.	16cc#JJ	16eeJJ	.	.	.	16cc#JJ	16eeJJ
8r	.	.	.	.	.	8a	8ddL	8ff#L	8ddL	8ff#L	.	8r	8r	8ddL	8ff#L
8D	.	.	.	.	.	8aJ	16eeL	16ggL	8aJ	16eeL	.	16DLL	16f#LL	8aJ	16eeL
.	.	.	.	.	.	.	16ff#JJ	16aaJJ	.	16ddJJ	.	16DJJ	16f#JJ	.	16ddJJ
=6	=6	=6	=6	=6	=6	=6	=6	=6	=6	=6	=6	=6	=6	=6	=6
!!pagebreak:original
8AL	.	1r	1r	1r	1r	8aL	8eeL	8ggL	16cc#LL	16eeLL	1r	8AAL	8aL	8aL	16eeLL
.	.	.	.	.	.	.	.	.	16ddJ	16ff#J	.	.	.	.	16ff#J
8E	6 4	.	.	.	.	8a	8cc#J	8eeJ	8eeJ	8ggJ	.	8AA	8a	8a	8ggJ
8C#	6 5	.	.	.	.	8a	8cc#L	8eeL	8eeL	8ggL	.	8AA	8a	8a	8ggL
8AAJ	.	.	.	.	.	8aJ	16ddL	16ff#L	16ddL	16ff#L	.	8AAJ	8aJ	8aJ	16ff#L
.	.	.	.	.	.	.	16eeJJ	16ggJJ	16cc#JJ	16eeJJ	.	.	.	.	16eeJJ
8DL	.	.	.	.	.	8aL	8ddL	8ff#L	8ddL	8ff#L	.	8AAL	8aL	8aL	8ff#L
8F#	.	.	.	.	.	8a	8a	16eeL	8a	16eeL	.	8AA	8a	8a	16eeL
.	.	.	.	.	.	.	.	16ddJJ	.	16ddJJ	.	.	.	.	16ddJJ
8A	.	.	.	.	.	8a	8cc#	8eeL	8cc#	8eeL	.	8AA	8a	8a	8eeL
8GJ	.	.	.	.	.	8cc#J	8eeJ	8aJ	8eeJ	8aJ	.	8DJ	8aJ	8aJ	8aJ
=7	=7	=7	=7	=7	=7	=7	=7	=7	=7	=7	=7	=7	=7	=7	=7
8F#L	6	2r	2r	2r	2r	8ddL	8aL	16ddLL	8aL	16ddLL	1r	8DL	8aL	8aL	16ddLL
.	.	.	.	.	.	.	.	16ee	.	16ee	.	.	.	.	16ee
8BB	5	.	.	.	.	8b	16ddL	16ff#	16ddL	16ff#	.	16DL	8dJ	16ddL	16ff#
.	.	.	.	.	.	.	16eeJJ	16ggJJ	16eeJJ	16ggJJ	.	16DJJ	.	16eeJJ	16ggJJ
8FF#	6	.	.	.	.	8a	8ff#L	8aaL	8ff#L	8aaL	.	8DL	8r	8ff#L	8aaL
8GGJ	6 5	.	.	.	.	8bJ	16eeL	16ggL	16eeL	16ggL	.	16DL	8d	16eeL	16ggL
.	.	.	.	.	.	.	16ddJJ	16ff#JJ	16ddJJ	16ff#JJ	.	16DJJ	.	16ddJJ	16ff#JJ
8AAL	.	4r	4r	4r	4r	4e	4cc#	4ee	4cc#	4ee	.	4AA	4a	4aa	4ee
8BB	.	.	.	.	.	.	.	.	.	.	.	.	.	.	.
8C#	6	4AA	4c#	4e	4a	4r	4r	4r	4r	4r	.	4r	4r	4r	4r
8AAJ	.	.	.	.	.	.	.	.	.	.	.	.	.	.	.
=8	=8	=8	=8	=8	=8	=8	=8	=8	=8	=8	=8	=8	=8	=8	=8
8DL	.	8DL	4A	4d	4f#	1r	1r	1r	2r	2r	1r	1r	1r	1r	1r
8C#	.	8C#	.	.	.	.	.	.	.	.	.	.	.	.	.
8D	.	8D	8F#L	4A	8eL	.	.	.	.	.	.	.	.	.	.
8EJ	.	8EJ	8GJ	.	8dJ	.	.	.	.	.	.	.	.	.	.
8F#L	6	8F#L	8AL	4d	4a	.	.	.	4r	4r	.	.	.	.	.
8E	.	8E	8GJ	.	.	.	.	.	.	.	.	.	.	.	.
8F#	.	8F#	4A	4d	4a	.	.	.	8r	8r	.	.	.	.	.
8DJ	.	8DJ	.	.	.	.	.	.	8a	8ff#	.	.	.	.	.
=9	=9	=9	=9	=9	=9	=9	=9	=9	=9	=9	=9	=9	=9	=9	=9
!!pagebreak:original
4G	.	2G	2G	2d	2b	2r	2r	2r	16bLL	16ggLL	1r	1r	1r	1r	1r
.	.	.	.	.	.	.	.	.	16ccnJ	16aaJ	.	.	.	.	.
.	.	.	.	.	.	.	.	.	8ddJ	8bbJ	.	.	.	.	.
4GG	5 3	.	.	.	.	.	.	.	8ddL	8bbL	.	.	.	.	.
.	7 2	.	.	.	.	.	.	.	8ccJ	8aaJ	.	.	.	.	.
4G	5 3	4r	4r	4r	4r	16r	16r	16r	8bL	8ggL	.	.	.	.	.
.	.	.	.	.	.	16BLL	16dLL	16gLL	.	.	.	.	.	.	.
.	.	.	.	.	.	16d	16g	16b	8g	8dd	.	.	.	.	.
.	.	.	.	.	.	16gJJ	16bJJ	16ddJJ	.	.	.	.	.	.	.
8r	.	4G	4D	4d	4b	8b	8dd	8gg	8g	8dd	.	.	.	.	.
8G	.	.	.	.	.	8r	8r	8r	8bJ	8ggJ	.	.	.	.	.
=10	=10	=10	=10	=10	=10	=10	=10	=10	=10	=10	=10	=10	=10	=10	=10
8AL	.	4A	4A	4c#	4e	2r	2r	2r	16eLL	16cc#LL	1r	1r	1r	1r	1r
.	.	.	.	.	.	.	.	.	16f#J	16ddJ	.	.	.	.	.
8E	.	.	.	.	.	.	.	.	8gJ	8eeJ	.	.	.	.	.
8C#	.	4AA	8GL	8c#L	4e	.	.	.	8gL	8eeL	.	.	.	.	.
8AAJ	.	.	8AJ	8dJ	.	.	.	.	8f#J	8ddJ	.	.	.	.	.
8AL	.	8AL	4.c#	4.e	4.a	16r	16r	16r	8eL	8cc#L	.	.	.	.	.
.	.	.	.	.	.	16c#LL	16eLL	16aLL	.	.	.	.	.	.	.
8G	.	8G	.	.	.	16e	16a	16cc#	8c#	8a	.	.	.	.	.
.	.	.	.	.	.	16aJJ	16cc#JJ	16eeJJ	.	.	.	.	.	.	.
8F#	7 5	8F#	.	.	.	8cc#	8ee	8aa	8c#J	8aJ	.	.	.	.	.
8EJ	6	8EJ	8e	8c#	8g	8r	8r	8r	8r	8r	.	.	.	.	.
=11	=11	=11	=11	=11	=11	=11	=11	=11	=11	=11	=11	=11	=11	=11	=11
8DL	.	8DL	8A	4.d	4f#	1r	1r	1r	4r	4r	1r	1r	1r	1r	2r
8BB	.	8BB	4B	.	.	.	.	.	.	.	.	.	.	.	.
8GG	6 5	8GG	.	.	4e	.	.	.	8r	8r	.	.	.	.	.
8AAJ	.	8AAJ	8A	8c#	.	.	.	.	8cc#	8cc#	.	.	.	.	.
4D	.	4D	4F#	4A	4d	.	.	.	16ddLL	16ddLL	.	.	.	.	4r
.	.	.	.	.	.	.	.	.	16eeJ	16eeJ	.	.	.	.	.
.	.	.	.	.	.	.	.	.	8ff#J	8ff#J	.	.	.	.	.
8r	.	4r	4r	4r	4r	.	.	.	8ff#L	8ff#L	.	.	.	.	8r
8C#	6	.	.	.	.	.	.	.	8eeJ	8eeJ	.	.	.	.	8a
=12	=12	=12	=12	=12	=12	=12	=12	=12	=12	=12	=12	=12	=12	=12	=12
!!pagebreak:original
4D	.	1r	1r	1r	1r	2r	2r	2r	16ff#LL	16ff#LL	1r	2r	2r	2r	16ddLL
.	.	.	.	.	.	.	.	.	16ggJ	16ggJ	.	.	.	.	16eeJ
.	.	.	.	.	.	.	.	.	8aaJ	8aaJ	.	.	.	.	8ff#J
4A	6 4	.	.	.	.	.	.	.	[2.aa	[2.aa	.	.	.	.	8ff#L
.	5 3	.	.	.	.	.	.	.	.	.	.	.	.	.	8eeJ
4d	.	.	.	.	.	16r	16r	16r	.	.	.	8r	8r	8r	8ddL
.	.	.	.	.	.	16f#LL	16aLL	16ddLL	.	.	.	.	.	.	.
.	.	.	.	.	.	16a	16dd	16ff#	.	.	.	16DLL	16dLL	16f#LL	8aJ
.	.	.	.	.	.	16ddJJ	16ff#JJ	16aaJJ	.	.	.	16DJJ	16dJJ	16f#JJ	.
8r	.	.	.	.	.	8f#	8aa	8ddd	.	.	.	8D	8d	8f#L	8aL
8A	.	.	.	.	.	8r	8r	8r	.	.	.	8r	8r	8aJ	16ddL
.	.	.	.	.	.	.	.	.	.	.	.	.	.	.	16eeJJ
=13	=13	=13	=13	=13	=13	=13	=13	=13	=13	=13	=13	=13	=13	=13	=13
4D	.	2r	2r	2r	2r	2r	2r	2r	2aa_	2aa_	1r	2r	2r	16ddLL	16ff#LL
.	.	.	.	.	.	.	.	.	.	.	.	.	.	16eeJ	16ggJ
.	.	.	.	.	.	.	.	.	.	.	.	.	.	8ff#J	8aaJ
4AA	6 4	.	.	.	.	.	.	.	.	.	.	.	.	8ff#L	8aaL
.	5 3	.	.	.	.	.	.	.	.	.	.	.	.	8eeJ	8ggJ
8DDL	.	4r	4r	4r	4r	16r	16r	16r	16aaLL]	16aaLL]	.	8r	8r	8ddL	8ff#L
.	.	.	.	.	.	16f#LL	16aLL	16ddLL	16gg	16gg	.	.	.	.	.
8D	.	.	.	.	.	16a	16dd	16ff#	16ff#	16ff#	.	16DLL	16f#LL	8a	8dd
.	.	.	.	.	.	16ddJJ	16ff#JJ	16aaJJ	16eeJJ	16eeJJ	.	16DJJ	16f#JJ	.	.
8C#	6 4 2	4D	4d	4f#	4a	8f#	8aa	8dddL	8dd	8dd	.	8D	8f#	8aJ	8ddJ
8DJ	.	.	.	.	.	8r	8r	8dddJ	8r	8r	.	8r	8r	8r	8r
=14	=14	=14	=14	=14	=14	=14	=14	=14	=14	=14	=14	=14	=14	=14	=14
8GL	.	8GL	4d	4g	4b	1r	1r	1r	2r	2r	1r	1r	1r	1r	1r
8F#	.	8F#	.	.	.	.	.	.	.	.	.	.	.	.	.
8E	.	8E	4e	8gL	4b	.	.	.	.	.	.	.	.	.	.
8DJ	.	8DJ	.	8f#J	.	.	.	.	.	.	.	.	.	.	.
8C#L	6	8C#L	4A	8eL	4a	.	.	.	4r	4r	.	.	.	.	.
8BB	.	8BB	.	8dJ	.	.	.	.	.	.	.	.	.	.	.
8C#	5	8C#	4A	4e	4g	.	.	.	8r	8r	.	.	.	.	.
8AAJ	.	8AAJ	.	.	.	.	.	.	8e	8cc#	.	.	.	.	.
=15	=15	=15	=15	=15	=15	=15	=15	=15	=15	=15	=15	=15	=15	=15	=15
!!pagebreak:original
4D	.	2D	2A	2d	2f#	2r	2r	2r	16f#LL	16ddLL	1r	1r	1r	1r	1r
.	.	.	.	.	.	.	.	.	16gJ	16eeJ	.	.	.	.	.
.	.	.	.	.	.	.	.	.	8aJ	8ff#J	.	.	.	.	.
4DD	.	.	.	.	.	.	.	.	8aL	8ff#L	.	.	.	.	.
.	.	.	.	.	.	.	.	.	8gJ	8eeJ	.	.	.	.	.
4D	.	4r	4r	4r	4r	16r	16r	16r	8f#L	8ddL	.	.	.	.	.
.	.	.	.	.	.	16dLL	16f#LL	16aLL	.	.	.	.	.	.	.
.	.	.	.	.	.	16f#	16a	16dd	8d	8a	.	.	.	.	.
.	.	.	.	.	.	16aJJ	16ddJJ	16ff#JJ	.	.	.	.	.	.	.
8C#L	6	4A	4c#	4e	4e	8e	8a	8aa	8e	8a	.	.	.	.	.
8BBJ	.	.	.	.	.	8r	8r	8r	8aJ	8ddJ	.	.	.	.	.
=16	=16	=16	=16	=16	=16	=16	=16	=16	=16	=16	=16	=16	=16	=16	=16
8AAL	6	4AA	8c#L	8eL	4f#	2r	2r	2r	16aLL	16cc#LL	1r	1r	1r	1r	1r
.	.	.	.	.	.	.	.	.	16bJ	16ddJ	.	.	.	.	.
8A	.	.	8AJ	8c#J	.	.	.	.	8cc#J	8eeJ	.	.	.	.	.
8B	#6\	4BB	4d	4d	4g#X	.	.	.	8cc#L	8eeL	.	.	.	.	.
8BBJ	.	.	.	.	.	.	.	.	8bJ	8ddJ	.	.	.	.	.
8C#L	6	4C#	4e	4a	4a	16r	16r	16r	8aL	8cc#L	.	.	.	.	.
.	.	.	.	.	.	16c#LL	16eLL	16aLL	.	.	.	.	.	.	.
8c#	.	.	.	.	.	16e	16a	16dd	8e	8a	.	.	.	.	.
.	.	.	.	.	.	16aJJ	16cc#JJ	16ff#JJ	.	.	.	.	.	.	.
8d	6 5	4D	4f#	4a	8bL	8f#	8b	8aa	8f#J	8aJ	.	.	.	.	.
8DJ	.	.	.	.	16cc#L	8r	8r	8r	8r	8r	.	.	.	.	.
.	.	.	.	.	16ddJJ	.	.	.	.	.	.	.	.	.	.
=17	=17	=17	=17	=17	=17	=17	=17	=17	=17	=17	=17	=17	=17	=17	=17
8EL	6 4	2E	4e	4a	4cc#	1r	2r	4r	2r	4r	1r	1r	1r	1r	4r
8D	.	.	.	.	.	.	.	.	.	.	.	.	.	.	.
8E	5 #	.	8dL	4g#X	4b	.	.	8r	.	8r	.	.	.	.	8r
8EEJ	.	.	8c#J	.	.	.	.	8g#X	.	8g#X	.	.	.	.	8ee
4AA	.	4AA	4c#	4e	4a	.	4r	16aLL	4r	16aLL	.	.	.	.	[2ee
.	.	.	.	.	.	.	.	16bJ	.	16bJ	.	.	.	.	.
.	.	.	.	.	.	.	.	8cc#J	.	8cc#J	.	.	.	.	.
8r	.	4r	4r	4r	4r	.	8r	8cc#L	8r	8cc#L	.	.	.	.	.
8GG#X	6	.	.	.	.	.	8e	8bJ	8e	8bJ	.	.	.	.	.
=18	=18	=18	=18	=18	=18	=18	=18	=18	=18	=18	=18	=18	=18	=18	=18
!!pagebreak:original
4AA	.	1r	1r	1r	1r	2r	16aLL	16cc#LL	16aLL	16cc#LL	1r	2r	2r	2r	1ee_
.	.	.	.	.	.	.	16bJ	16ddJ	16bJ	16ddJ	.	.	.	.	.
.	.	.	.	.	.	.	8cc#J	8eeJ	8cc#J	8eeJ	.	.	.	.	.
4E	6 4	.	.	.	.	.	8cc#L	8eeL	8cc#L	8eeL	.	.	.	.	.
.	5 #	.	.	.	.	.	8bJ	8ddJ	8bJ	8ddJ	.	.	.	.	.
4A	.	.	.	.	.	4r	8aL	8cc#L	8aL	8cc#L	.	8r	8r	8r	.
.	.	.	.	.	.	.	8eJ	8aJ	8eJ	8aJ	.	16AALL	16aLL	16aaLL	.
.	.	.	.	.	.	.	.	.	.	.	.	16AAJJ	16aJJ	16aaJJ	.
8r	.	.	.	.	.	8r	8eL	16aLL	8eL	16aLL	.	8AA	8a	8aa	.
.	.	.	.	.	.	.	.	16b	.	16b	.	.	.	.	.
8E	6 4	.	.	.	.	8e	16aL	16cc#	16aL	16cc#	.	8r	8r	8r	.
.	5 #	.	.	.	.	.	16bJJ	16ddJJ	16bJJ	16ddJJ	.	.	.	.	.
=19	=19	=19	=19	=19	=19	=19	=19	=19	=19	=19	=19	=19	=19	=19	=19
4AA	.	2r	2r	2r	2r	16aLL	16cc#LL	8eeL	16cc#LL	8eeL	1r	2r	2r	2r	2.ee]
.	.	.	.	.	.	16bJ	16ddJ	.	16ddJ	.	.	.	.	.	.
.	.	.	.	.	.	8cc#J	8eeJ	8aa	8eeJ	8aa	.	.	.	.	.
4EE	6 4	.	.	.	.	8cc#L	8eeL	8aa	8eeL	8aa	.	.	.	.	.
.	5 #	.	.	.	.	8bJ	8ddJ	8gg#XJ	8ddJ	8gg#XJ	.	.	.	.	.
8AAL	.	4r	4r	4r	4r	8aL	8cc#L	8aaL	8cc#L	8aaL	.	8r	8r	8r	.
8BB	.	.	.	.	.	8e	8a	8cc#	8a	8cc#	.	16AALL	16aLL	16aaLL	.
.	.	.	.	.	.	.	.	.	.	.	.	16AAJJ	16aJJ	16aaJJ	.
8C#	6	4AA	4c#	4e	4a	8eJ	8aJ	8cc#J	8aJ	8cc#J	.	8AA	8a	8aa	4r
8AAJ	.	.	.	.	.	8r	8r	8r	8r	8r	.	8r	8r	8r	.
=20	=20	=20	=20	=20	=20	=20	=20	=20	=20	=20	=20	=20	=20	=20	=20
8DL	.	8DL	4d	8f#L	4a	1r	1r	1r	2r	2r	1r	1r	1r	1r	1r
8C#	.	8C#	.	8e	.	.	.	.	.	.	.	.	.	.	.
8D	.	8D	4d	8f#	4a	.	.	.	.	.	.	.	.	.	.
8EJ	.	8EJ	.	8gJ	.	.	.	.	.	.	.	.	.	.	.
8F#L	6	8F#L	4A	8aL	4dd	.	.	.	4r	4r	.	.	.	.	.
8E	.	8E	.	8gJ	.	.	.	.	.	.	.	.	.	.	.
8F#	nr5	8F#	4d	4a	4ccn	.	.	.	8r	8r	.	.	.	.	.
8DJ	.	8DJ	.	.	.	.	.	.	8a	8ff#	.	.	.	.	.
=21	=21	=21	=21	=21	=21	=21	=21	=21	=21	=21	=21	=21	=21	=21	=21
!!pagebreak:original
4G	.	2G	2d	2g	2b	2r	2r	2r	16bLL	16ggLL	1r	1r	1r	1r	1r
.	.	.	.	.	.	.	.	.	16ccnJ	16aaJ	.	.	.	.	.
.	.	.	.	.	.	.	.	.	8ddJ	8bbJ	.	.	.	.	.
4GG	5 3	.	.	.	.	.	.	.	8ddL	8bbL	.	.	.	.	.
.	7 nr4 2	.	.	.	.	.	.	.	8ccJ	8aaJ	.	.	.	.	.
8GL	.	4r	4r	4r	4r	16r	16r	16r	8bL	8ggL	.	.	.	.	.
.	.	.	.	.	.	16BLL	16dLL	16gLL	.	.	.	.	.	.	.
8A	.	.	.	.	.	16d	16g	16b	8gJ	8ddJ	.	.	.	.	.
.	.	.	.	.	.	16gJJ	16bJJ	16ddJJ	.	.	.	.	.	.	.
8G	.	8GL	4d	4g	4b	8b	8dd	8gg	4r	4r	.	.	.	.	.
8F#J	.	8F#J	.	.	.	8r	8r	8r	.	.	.	.	.	.	.
=22	=22	=22	=22	=22	=22	=22	=22	=22	=22	=22	=22	=22	=22	=22	=22
8EL	#	8EL	4e	8g#XL	4b	2r	2r	2r	2r	2r	1r	1r	1r	1r	1r
8D	.	8D	.	8f#	.	.	.	.	.	.	.	.	.	.	.
8E	#	8E	4e	8g#	4b	.	.	.	.	.	.	.	.	.	.
8F#J	.	8F#J	.	8aJ	.	.	.	.	.	.	.	.	.	.	.
8G#XL	6	8G#XL	4B	8bL	4ee	4r	4r	4r	4r	4r	.	.	.	.	.
8F#	.	8F#	.	8aJ	.	.	.	.	.	.	.	.	.	.	.
8G#	5	8G#	4e	4b	4dd	8r	8r	8r	8r	8r	.	.	.	.	.
8EJ	.	8EJ	.	.	.	8B	8e	8g#X	8dd	8ee	.	.	.	.	.
=23	=23	=23	=23	=23	=23	=23	=23	=23	=23	=23	=23	=23	=23	=23	=23
8AL	.	4A	4e	4a	4cc#	8c#L	8eL	8aL	8cc#L	8eeL	1r	1r	1r	2r	2r
8AA	6 4	.	.	.	.	8B	8d	8g#X	8ddJ	8ff#J	.	.	.	.	.
8AA	.	4r	4r	4r	4r	8B	8d	8g#	8ddL	8ff#L	.	.	.	.	.
8AAJ	5 3	.	.	.	.	8c#J	8eJ	8aJ	16cc#L	16eeL	.	.	.	.	.
.	.	.	.	.	.	.	.	.	16bJJ	16ddJJ	.	.	.	.	.
8AAL	.	2r	2r	2r	2r	8c#L	8eL	8aL	8cc#L	8eeL	.	.	.	4r	4r
8AA	#7\ 4 2	.	.	.	.	8d	8g#XJ	8bJ	16bL	16ddL	.	.	.	.	.
.	.	.	.	.	.	.	.	.	16aJJ	16cc#JJ	.	.	.	.	.
8AA	.	.	.	.	.	8d	8g#L	8bL	8bL	8ddL	.	.	.	8r	8r
8AAJ	5 3	.	.	.	.	8eJ	16aL	16cc#L	16aL	16cc#L	.	.	.	8ee	8aa
.	.	.	.	.	.	.	16bJJ	16ddJJ	16g#XJJ	16bJJ	.	.	.	.	.
=24	=24	=24	=24	=24	=24	=24	=24	=24	=24	=24	=24	=24	=24	=24	=24
!!pagebreak:original
8AAL	.	1r	1r	1r	1r	8eL	8aL	8cc#L	8aL	8cc#L	1r	4r	4r	16eeLL	8aaL
.	.	.	.	.	.	.	.	.	.	.	.	.	.	16ff#J	.
8AA	9 7 3	.	.	.	.	8e	8g	8cc#	8ggJ	8bbJ	.	.	.	8ggJ	8bbJ
8AA	.	.	.	.	.	8e	8g	8cc#	8ggL	8bbL	.	8r	8r	8ggL	8bbL
8AAJ	6 4	.	.	.	.	8f#J	8aJ	8ddJ	16ff#L	16aaL	.	16AALL	16ddLL	16ff#L	16aaL
.	.	.	.	.	.	.	.	.	16eeJJ	16ggJJ	.	16AAJJ	16ddJJ	16eeJJ	16ggJJ
8AAL	6 4	.	.	.	.	8f#L	8aL	8ddL	8ff#L	8aaL	.	4AA	4dd	8ff#L	8aaL
8AA	.	.	.	.	.	8g	8cc#J	8eeJ	16eeL	16ggL	.	.	.	16eeL	16ggL
.	.	.	.	.	.	.	.	.	16ddJJ	16ff#JJ	.	.	.	16ddJJ	16ff#JJ
8AA	7 3	.	.	.	.	8g	8cc#L	8eeL	8eeL	8ggL	.	8r	8r	8eeL	8ggL
8AAJ	.	.	.	.	.	8aJ	16ddL	16ff#L	16ddL	16ff#L	.	16AALL	16aLL	16ddL	16ff#L
.	.	.	.	.	.	.	16eeJJ	16ggJJ	16cc#JJ	16eeJJ	.	16AAJJ	16aJJ	16cc#JJ	16eeJJ
=25	=25	=25	=25	=25	=25	=25	=25	=25	=25	=25	=25	=25	=25	=25	=25
8DL	.	2r	2r	2r	2r	8aL	8ddL	8ff#L	16ddLL	16ff#LL	1r	4D	4a	16ddLL	16ff#LL
.	.	.	.	.	.	.	.	.	16eeJ	16ggJ	.	.	.	16eeJ	16ggJ
8D	.	.	.	.	.	8f#	8a	8dd	8ff#J	8aaJ	.	.	.	8ff#J	8aaJ
8D	.	.	.	.	.	8f#	8a	8dd	8ff#L	8aaL	.	8r	8r	8ff#L	8aaL
8DJ	.	.	.	.	.	8gJ	8cc#J	8eeJ	16eeL	16ggL	.	16DLL	16aLL	16eeL	16ggL
.	.	.	.	.	.	.	.	.	16ddJJ	16ff#JJ	.	16DJJ	16aJJ	16ddJJ	16ff#JJ
8DL	7 4 2	4r	4r	4r	4r	8gL	8cc#L	8eeL	8eeL	8ggL	.	4D	4a	8eeL	8ggL
8E	.	.	.	.	.	8a	16ddL	16ff#L	16ddL	16ff#L	.	.	.	16ddL	16ff#L
.	.	.	.	.	.	.	16eeJJ	16ggJJ	16cc#JJ	16eeJJ	.	.	.	16cc#JJ	16eeJJ
8F#	6	4D	4d	4f#	4a	8aJ	8dd	8ff#	8dd	8ff#	.	4r	4r	8dd	8ff#
8DJ	.	.	.	.	.	8r	8r	8r	8r	8r	.	.	.	8r	8r
=26	=26	=26	=26	=26	=26	=26	=26	=26	=26	=26	=26	=26	=26	=26	=26
8GL	.	8GL	4d	4g	4b	1r	1r	1r	2r	2r	1r	1r	1r	1r	1r
8A	.	8A	.	.	.	.	.	.	.	.	.	.	.	.	.
8G	5 2	8G	4d	4a	4a	.	.	.	.	.	.	.	.	.	.
8F#J	.	8F#J	.	.	.	.	.	.	.	.	.	.	.	.	.
8EL	.	8EL	8GL	8gL	4b	.	.	.	4r	4r	.	.	.	.	.
8D	6	8D	8BJ	8f#	.	.	.	.	.	.	.	.	.	.	.
8C#	7	8C#	8BL	8e	4cc#	.	.	.	8r	8r	.	.	.	.	.
8F#J	#	8F#J	8A#XJ	8f#J	.	.	.	.	8f#	8a#X	.	.	.	.	.
=27	=27	=27	=27	=27	=27	=27	=27	=27	=27	=27	=27	=27	=27	=27	=27
!!pagebreak:original
4BB	.	2BB	2F#	2f#	2dd	1r	1r	1r	16dLL	16bLL	1r	1r	1r	1r	1r
.	.	.	.	.	.	.	.	.	16eJ	16cc#J	.	.	.	.	.
.	.	.	.	.	.	.	.	.	8f#J	8ddJ	.	.	.	.	.
4B	8 5	.	.	.	.	.	.	.	8f#L	8ddL	.	.	.	.	.
.	7 4 2	.	.	.	.	.	.	.	8eJ	8cc#J	.	.	.	.	.
8BBL	5 3	4r	4r	4r	4r	.	.	.	8dL	8bL	.	.	.	.	.
8B	.	.	.	.	.	.	.	.	8d	8f#	.	.	.	.	.
8F#	6	4F#	4An	4d	4a	.	.	.	8dJ	8f#J	.	.	.	.	.
8DJ	.	.	.	.	.	.	.	.	8r	8r	.	.	.	.	.
=28	=28	=28	=28	=28	=28	=28	=28	=28	=28	=28	=28	=28	=28	=28	=28
8GGL	.	8GGL	8GL	4d	8bL	1r	1r	1r	1r	1r	1r	1r	1r	1r	2r
8AA	.	8AA	8F#J	.	8aJ	.	.	.	.	.	.	.	.	.	.
8BB	6	8BB	8EL	4d	8gL	.	.	.	.	.	.	.	.	.	.
8GGJ	7	8GGJ	8DJ	.	8f#J	.	.	.	.	.	.	.	.	.	.
8AAL	5 4	8AAL	8AL	8dL	8eL	.	.	.	.	.	.	.	.	.	4r
8GG	.	8GGJ	8DJ	8BJ	16f#L	.	.	.	.	.	.	.	.	.	.
.	.	.	.	.	16gJJ	.	.	.	.	.	.	.	.	.	.
8AA	3	4AA	8AL	4c#	4e	.	.	.	.	.	.	.	.	.	8r
8AAJ	.	.	8GJ	.	.	.	.	.	.	.	.	.	.	.	8a
=29	=29	=29	=29	=29	=29	=29	=29	=29	=29	=29	=29	=29	=29	=29	=29
4DD	.	2D	2F#	2A	2d	2r	2r	2r	2r	2r	1r	2r	2r	2r	16ddLL
.	.	.	.	.	.	.	.	.	.	.	.	.	.	.	16eeJ
.	.	.	.	.	.	.	.	.	.	.	.	.	.	.	8ff#J
4D	8 3 5	.	.	.	.	.	.	.	.	.	.	.	.	.	8ff#L
.	7 2 4	.	.	.	.	.	.	.	.	.	.	.	.	.	8eeJ
4d	5 3	2r	2r	2r	2r	16r	16r	16r	16r	16r	.	16r	16r	16r	8ddL
.	.	.	.	.	.	16f#LL	16aLL	16ddLL	16aLL	16ddLL	.	16DLL	16dLL	16f#LL	.
.	.	.	.	.	.	16a	16dd	16ff#	16dd	16ff#	.	16D	16d	16f#	8aJ
.	.	.	.	.	.	16ddJJ	16ff#JJ	16aaJJ	16ff#JJ	16aaJJ	.	16DJJ	16dJJ	16f#JJ	.
8r	.	.	.	.	.	8f#	8aa	8ddd	8aa	8ddd	.	8D	8d	8f#L	8aL
8D	.	.	.	.	.	8r	8r	8r	8r	8r	.	8r	8r	8aJ	16ddL
.	.	.	.	.	.	.	.	.	.	.	.	.	.	.	16eeJJ
=30	=30	=30	=30	=30	=30	=30	=30	=30	=30	=30	=30	=30	=30	=30	=30
!!pagebreak:original
8D	.	1r	1r	1r	1r	2r	2r	2r	2r	2r	1r	2r	2r	16ddLL	16ff#LL
.	.	.	.	.	.	.	.	.	.	.	.	.	.	16eeJ	16ggJ
4AA	6 4	.	.	.	.	.	.	.	.	.	.	.	.	8ff#J	8aaJ
.	5 3	.	.	.	.	.	.	.	.	.	.	.	.	8ff#L	8aaL
4DD	.	.	.	.	.	.	.	.	.	.	.	.	.	8eeJ	8ggJ
.	.	.	.	.	.	16r	16r	16r	16r	16r	.	16r	16r	8ddL	8ff#L
.	.	.	.	.	.	16f#LL	16aLL	16ddLL	16aLL	16ddLL	.	16DLL	16f#LL	.	.
8r	.	.	.	.	.	16a	16dd	16ff#	16dd	16ff#	.	16D	16f#	8aJ	8ddJ
.	.	.	.	.	.	16ddJJ	16ff#JJ	16aaJJ	16ff#JJ	16aaJJ	.	16DJJ	16f#JJ	.	.
8DL	.	.	.	.	.	8f#L	8aaL	8dddL	8aaL	8dddL	.	8DL	8f#L	8aL	16ddLL
.	.	.	.	.	.	.	.	.	.	.	.	.	.	.	16ee
8DJ	.	.	.	.	.	8f#J	8aJ	8ddJ	8ff#J	8aaJ	.	8DJ	8aJ	16ddL	16ff#
.	.	.	.	.	.	.	.	.	.	.	.	.	.	16eeJJ	16ggJJ
=31	=31	=31	=31	=31	=31	=31	=31	=31	=31	=31	=31	=31	=31	=31	=31
8DL	.	1r	1r	1r	1r	8f#L	8aL	8ddL	8ff#L	8aaL	1r	4D	4dd	8ff#L	8aaL
8D	6 4	.	.	.	.	8e	8g	8cc#	8ggJ	8bbJ	.	.	.	8ggJ	8bbJ
8D	.	.	.	.	.	8e	8g	8cc#	8ggL	8bbL	.	8r	8r	8ggL	8bbL
8DJ	5 3	.	.	.	.	8f#J	8aJ	8ddJ	16ff#L	16aaL	.	16DLL	16ddLL	16ff#L	16aaL
.	.	.	.	.	.	.	.	.	16eeJJ	16ggJJ	.	16DJJ	16ddJJ	16eeJJ	16ggJJ
8DL	.	.	.	.	.	8f#L	8aL	8ddL	8ff#L	8aaL	.	4D	4dd	8ff#L	8aaL
8D	7 4 2	.	.	.	.	8g	8cc#J	8eeJ	16eeL	16ggL	.	.	.	16eeL	16ggL
.	.	.	.	.	.	.	.	.	16ddJJ	16ff#JJ	.	.	.	16ddJJ	16ff#JJ
8D	.	.	.	.	.	8g	8cc#L	8eeL	8eeL	8ggL	.	8r	8r	8eeL	8ggL
8DJ	5 3	.	.	.	.	8aJ	16ddL	16ff#L	16ddL	16ff#L	.	16DLL	16aLL	16ddL	16ff#L
.	.	.	.	.	.	.	16eeJJ	16ggJJ	16cc#JJ	16eeJJ	.	16DJJ	16aJJ	16cc#JJ	16eeJJ
=32	=32	=32	=32	=32	=32	=32	=32	=32	=32	=32	=32	=32	=32	=32	=32
!!pagebreak:original
8DL	.	1r	1r	1r	1r	8aL	8ddL	8ff#L	16ddLL	16ff#LL	1r	4D	4a	16ddLL	16ff#LL
.	.	.	.	.	.	.	.	.	16eeJ	16ggJ	.	.	.	16eeJ	16ggJ
8D	.	.	.	.	.	8f#	8a	8dd	8ff#J	8aaJ	.	.	.	8ff#J	8aaJ
8D	.	.	.	.	.	8f#	8a	8dd	8ff#L	8aaL	.	8r	8r	8ff#L	8aaL
8DJ	.	.	.	.	.	8gJ	8cc#J	8eeJ	16eeL	16ggL	.	16DLL	16aLL	16eeL	16ggL
.	.	.	.	.	.	.	.	.	16ddJJ	16ff#JJ	.	16DJJ	16aJJ	16ddJJ	16ff#JJ
4D	7 4 2	.	.	.	.	8gL	8cc#L	8eeL	8eeL	8ggL	.	4D	4a	8eeL	8ggL
.	8 5 3	.	.	.	.	8a	8ddJ	8ff#J	16ddL	16ff#L	.	.	.	16ddL	16ff#L
.	.	.	.	.	.	.	.	.	16cc#JJ	16eeJJ	.	.	.	16cc#JJ	16eeJJ
8r	.	.	.	.	.	8a	8ddL	8ff#L	8ddL	8ff#L	.	8r	8r	8ddL	8ff#L
8D	.	.	.	.	.	8aJ	16eeL	16ggL	16cc#L	16eeL	.	16DLL	16f#LL	8aJ	16eeL
.	.	.	.	.	.	.	16ff#JJ	16aaJJ	16bJJ	16ddJJ	.	16DJJ	16f#JJ	.	16ddJJ
=33	=33	=33	=33	=33	=33	=33	=33	=33	=33	=33	=33	=33	=33	=33	=33
8AL	.	1r	1r	1r	1r	8aL	8eeL	8ggL	16cc#LL	16eeLL	1r	8AAL	8aL	8aL	16eeLL
.	.	.	.	.	.	.	.	.	16ddJ	16ff#J	.	.	.	.	16ff#J
8E	.	.	.	.	.	8a	8cc#J	8eeJ	8eeJ	8ggJ	.	8AA	8a	8eeJ	8ggJ
8C#	6 5	.	.	.	.	8a	8cc#L	8eeL	8eeL	8ggL	.	8AA	8a	8eeL	8ggL
8AAJ	.	.	.	.	.	8aJ	16ddL	16ff#L	16ddL	16ff#L	.	8AAJ	8aJ	16ddL	16ff#L
.	.	.	.	.	.	.	16eeJJ	16ggJJ	16cc#JJ	16eeJJ	.	.	.	16cc#JJ	16eeJJ
8DL	.	.	.	.	.	8aL	8ddL	8ff#L	8ddL	8ff#L	.	8AAL	8aL	8ddL	8ff#L
8F#	.	.	.	.	.	8a	8a	16eeL	16cc#L	16eeL	.	8AA	8a	8a	16eeL
.	.	.	.	.	.	.	.	16ddJJ	16bJJ	16ddJJ	.	.	.	.	16ddJJ
8C#	6	.	.	.	.	8a	8ee	8aaL	8eeL	8aaL	.	8AA	8a	8ee	8aaL
8AAJ	7	.	.	.	.	8aJ	8cc#J	8ggJ	8cc#J	8ggJ	.	8AAJ	8aJ	8eeJ	8ggJ
=34	=34	=34	=34	=34	=34	=34	=34	=34	=34	=34	=34	=34	=34	=34	=34
8DL	.	2r	2r	2r	2r	8aL	8ddL	8ff#L	8ddL	8ff#L	2r	8DL	8aL	8ddL	8ff#L
8G	.	.	.	.	.	8b	8dd	16eeL	8dd	16eeL	.	16DL	8dJ	8dd	16eeL
.	.	.	.	.	.	.	.	16ff#JJ	.	16ff#JJ	.	16DJJ	.	.	16ff#JJ
8A	4	.	.	.	.	8a	8dd	8ggL	8dd	8ggL	.	8AAL	8aL	8dd	8ggL
8AAJ	3	.	.	.	.	8aJ	8cc#J	16ff#L	8cc#J	16ff#L	.	16AAL	16aL	8aJ	16ff#L
.	.	.	.	.	.	.	.	16eeJJ	.	16eeJJ	.	16AAJJ	16aJJ	.	16eeJJ
4.DD	.	4r	4r	4r	4r	4.a	4.a	4.dd	4.dd	4.dd	4r	4.D	4.f#	4.a	4.dd
.	.	8r	8r	8r	8r	.	.	.	.	.	8r	.	.	.	.
=||	=||	=||	=||	=||	=||	=||	=||	=||	=||	=||	=||	=||	=||	=||	=||
*-	*-	*-	*-	*-	*-	*-	*-	*-	*-	*-	*-	*-	*-	*-	*-
!!!system-decoration: s1,s2,s3,s4,s5,s6,s7,s8,s9,s10,s11,s12,s13,s14,s15
